usr/share/icons/biglinux-icons-material/symbolic/apps/org.gnome.Settings-bluetooth-symbolic.svg

<svg width="16px" height="16px" version="1.1" viewBox="0 0 16 16" xmlns="http://www.w3.org/2000/svg">
 <path d="m7.2949 1.0449a0.50005 0.50005 0 0 0-0.29492 0.45508v5.2852l-2.7344-1.709a0.5 0.5 0 0 0-0.68945 0.1582 0.5 0.5 0 0 0 0.1582 0.68945l3.2656 2.041v0.070313l-3.2656 2.041a0.5 0.5 0 0 0-0.1582 0.68945 0.5 0.5 0 0 0 0.68945 0.1582l2.7344-1.709v5.2852a0.50005 0.50005 0 0 0 0.83203 0.37305l4.5-4a0.50005 0.50005 0 0 0-0.06641-0.79688l-3.3223-2.0762 3.3223-2.0762a0.50005 0.50005 0 0 0 0.06641-0.79688l-4.5-4a0.50005 0.50005 0 0 0-0.53711-0.082031zm0.70508 1.5684 3.1699 2.8164-3.1699 1.9805zm0 5.9766 3.1699 1.9805-3.1699 2.8164z" fill="#363636"/>
</svg>

<svg xmlns="http://www.w3.org/2000/svg" width="16" height="16"><path fill="#dedede" d="M7.295 1.045A.5.5 0 0 0 7 1.5v5.285L4.266 5.076a.5.5 0 0 0-.69.158.5.5 0 0 0 .158.69L7 7.964v.071l-3.266 2.041a.5.5 0 0 0-.158.69.5.5 0 0 0 .69.158L7 9.214V14.5a.5.5 0 0 0 .832.373l4.5-4a.5.5 0 0 0-.066-.797L8.943 8l3.323-2.076a.5.5 0 0 0 .066-.797l-4.5-4a.5.5 0 0 0-.537-.082zM8 2.613l3.17 2.817L8 7.41zM8 8.59l3.17 1.98L8 13.387z"/></svg>
